X:1
T:Title
%%score { 1 | 2 }
L:1/8
M:6/8
K:Ab
V:1 treble nm="Grand Piano"
V:2 bass 
V:1
 z3 z2[Q:1/4=84] [CE] | [Ec]>[DB][Ec] [CE][CF][CA] | [DA]3 [DG]2 E | d>BG EFE | [Ec]3- [Ec]2 [CE] | %5
 [Ec]>[DB][Ec] [CE][CF][EA] | G3 B2 B | [=DB]>[Dc][DB] [CDA][B,DG][A,DF] | [G,E]3- [G,E]2 [G,E] | %9
 [Gd]>[Gd][Gd] [Gd][Gc][GB] | [EAc]3 [CEA]2 [A,CE] | A>AA cBA | B3- B2 E | %13
 [CA]>[Ec][Ec] [Ec][EB][EA] | [DF]3 [FA]2 [=EB] | c>ed cAB |[M:5/8] [CA]-[CA]- [CA]3 | %17
[M:1/8] [A,CE] |[M:3/4] [CEe]3 [Ec]2 [CEA] | [Ec]3 [CA]2 [CE] | [CA]2 [CA][FB] [FA][FB] | %21
[M:5/8] [=Ec]-[Ec]- [Ec]3 |[M:1/8] [CE] |[M:3/4] [Ec]>[DB] [Ec][Ee] [Ed][Ec] | %24
[M:7/8] [FB]2 [Fc] [Fd]3 F | %25
[M:3/4] E2 EE EE[Q:1/4=83][Q:1/4=81][Q:1/4=80][Q:1/4=79][Q:1/4=77][Q:1/4=76][Q:1/4=75][Q:1/4=74][Q:1/4=72][Q:1/4=71][Q:1/4=70][Q:1/4=68][Q:1/4=67][Q:1/4=66][Q:1/4=64] | %26
[M:5/8] [CA]-[CA]- [CA]3 |] %27
V:2
 z3 z2 [A,,A,] | [A,,A,]>[A,,A,][A,,A,] [A,,A,][A,,A,][A,,A,] | [B,,E,]3 [B,,E,]2 [E,G,D] | %3
 [E,G,E]>[E,G,E][E,B,E] [E,G,D][E,G,D][E,G,] | [A,,A,]3- [A,,A,]2 [A,,A,] | %5
 [A,,A,]>[A,,A,][A,,A,] [A,,A,][A,,A,][C,A,] | [E,B,E]3 [E,G,E]2 [E,G,E] | %7
 [B,,A,]>[B,,A,][B,,A,] B,,B,,B,, | E,3- E,2 E, | [E,B,]>[E,B,][E,B,] [E,B,][E,E][E,E] | %10
 A,3 A,,2 A,, | [A,CE]>[A,CE][A,CE] [F,A,=D][F,A,D][F,A,D] | [E,G,D]3- [E,G,D]2 [E,G,D] | %13
 [A,,A,]>[A,,A,][A,,A,] [A,,A,][B,,G,][C,A,] | [D,A,]3 [D,D]2 [D,A,] | %15
 [E,A,E]>[E,CE][E,B,E] [E,A,E][E,A,C][E,G,D] |[M:5/8] [A,,E,]-[A,,E,]- [A,,E,]3 |[M:1/8] A,, | %18
[M:3/4] A,,3 A,,2 A,, | [A,,A,]3 [A,,A,]2 [A,,A,] | [F,A,]2 [F,A,][D,F,] [D,F,][D,F,] | %21
[M:5/8] [C,G,]-[C,G,]- [C,G,]3 |[M:1/8] [A,,A,] | %23
[M:3/4] [A,,A,]>[A,,A,] [A,,A,][A,,A,] [B,,G,][A,,A,] |[M:7/8] [D,A,]2 [C,=A,] [B,,B,]3 [D,_A,D] | %25
[M:3/4] [E,A,C]2 [E,A,C][E,G,B,] [E,A,C][E,B,D] |[M:5/8] [A,,A,]-[A,,A,]- [A,,A,]3 |] %27

